packages/sources/assets/src/assets/decathlon-logo-with-outline.svg

<svg width="202" height="52" viewBox="0 0 202 52" fill="none" xmlns="http://www.w3.org/2000/svg">
<path d="M1 51H201V1H1V51Z" fill="#0082C3"/>
<path d="M64.815 39.2511C64.299 39.2511 63.77 39.225 63.244 39.174C60.2349 38.8655 57.4092 37.5812 55.198 35.517C52.5645 32.995 51.1168 29.4792 51.211 25.834C51.3192 22.9503 52.3129 20.17 54.057 17.871C55.1718 16.4002 56.6 15.1961 58.238 14.346C60.2746 13.3267 62.5186 12.7902 64.796 12.778C64.896 12.778 65.004 12.778 65.106 12.778C69.1293 12.8068 72.9377 14.5977 75.526 17.678L75.586 17.755L72.225 23.141L72.001 22.875L71.844 22.701L71.538 22.379L71.288 22.132C70.125 21.014 67.745 19.137 64.871 19.137H64.738C61.0158 19.2013 58.0301 22.2333 58.023 25.956C58.023 29.056 59.887 32.697 65.139 32.778H65.216C68.27 32.778 70.266 30.535 71.183 29.198L71.383 28.898C71.494 28.725 71.752 28.298 72.174 27.598L80.675 13.287H87.553V38.677H81.223V34.868L76.18 34.846H75.507L75.323 34.854L75.291 34.86L75.155 35.01L74.993 35.177L74.764 35.399L74.572 35.576L74.35 35.776L74.1 35.986C71.4717 38.1082 68.1931 39.2612 64.815 39.2511ZM81.353 23.806L77.96 29.556H81.353V23.806ZM152.769 39.239C149.169 39.322 145.699 37.8956 143.198 35.305V38.694H128.988V13.291H135.526V33.08H141.434C140.075 30.8728 139.379 28.3223 139.426 25.731C139.421 24.0097 139.765 22.3053 140.438 20.721C141.12 19.1304 142.115 17.693 143.363 16.494C145.879 14.0275 149.284 12.6799 152.807 12.756C156.269 12.7561 159.593 14.109 162.071 16.526C163.634 18.0195 164.803 19.8777 165.471 21.934V13.286H171.413L181.291 27.396V13.286H187.878V38.694H182.091L172.058 24.539V38.694H165.475V29.985C164.869 31.9698 163.789 33.7772 162.328 35.251C159.817 37.8254 156.365 39.2655 152.769 39.239ZM152.843 19.077C151.018 19.0618 149.26 19.7663 147.95 21.038C146.665 22.2888 145.943 24.0078 145.95 25.801C145.942 27.6962 146.686 29.5172 148.018 30.865C149.267 32.1496 150.975 32.8849 152.767 32.909C154.563 32.922 156.286 32.2027 157.54 30.917C158.844 29.5363 159.555 27.6997 159.52 25.801C159.528 22.1027 156.541 19.0956 152.843 19.078V19.077ZM113.638 38.695H107.068V13.284H113.638V22.932H120.404V13.284H126.979V38.693H120.404V28.972H113.638V38.694V38.695ZM100.606 38.695H94.038V19.35H88.926V13.276H105.712V19.35H100.612V38.693L100.606 38.695ZM23.123 38.695H13.038V13.287H22.226C26.44 13.287 29.436 13.787 32.276 16.322C34.3402 18.1998 35.6659 20.7532 36.014 23.522V13.287H50.638V18.876L42.592 18.885V23.036L49.559 23.03V28.494L42.592 28.501V33.106H50.638V38.677H36.013V28.548C35.6082 31.2348 34.3004 33.7037 32.305 35.548C29.438 38.193 26.865 38.694 23.126 38.694L23.123 38.695ZM19.615 18.75V33.114H22.256C24.809 33.114 26.638 32.548 27.848 31.384C29.058 30.22 29.666 28.414 29.666 25.904C29.666 21.291 27.024 18.75 22.226 18.75H19.615Z" fill="white"/>
<path d="M1 1V0H0V1H1ZM201 1H202V0H201V1ZM201 51V52H202V51H201ZM1 51H0V52H1V51ZM1 2H201V0H1V2ZM200 1V51H202V1H200ZM201 50H1V52H201V50ZM2 51V1H0V51H2Z" fill="white"/>
</svg>

<svg width="202" height="52" fill="none" xmlns="http://www.w3.org/2000/svg"><path d="M1 51h200V1H1v50Z" fill="#0082C3"/><path d="M64.815 39.251c-.516 0-1.045-.026-1.571-.077a13.863 13.863 0 0 1-8.046-3.657 12.944 12.944 0 0 1-3.987-9.683 14.046 14.046 0 0 1 2.846-7.963 12.432 12.432 0 0 1 4.181-3.525 14.83 14.83 0 0 1 6.558-1.568h.31a13.739 13.739 0 0 1 10.42 4.9l.06.077-3.361 5.386-.224-.266-.157-.174-.306-.322-.25-.247c-1.163-1.118-3.543-2.995-6.417-2.995h-.133a6.833 6.833 0 0 0-6.715 6.819c0 3.1 1.864 6.741 7.116 6.822h.077c3.054 0 5.05-2.243 5.967-3.58l.2-.3c.111-.173.369-.6.791-1.3l8.501-14.311h6.878v25.39h-6.33v-3.809l-5.043-.022h-.673l-.184.008-.032.006-.136.15-.162.167-.229.222-.192.177-.222.2-.25.21a14.71 14.71 0 0 1-9.285 3.265Zm16.538-15.445-3.393 5.75h3.393v-5.75Zm71.416 15.433a12.89 12.89 0 0 1-9.571-3.934v3.389h-14.21V13.291h6.538V33.08h5.908a13.547 13.547 0 0 1-2.008-7.349 12.719 12.719 0 0 1 1.012-5.01 12.926 12.926 0 0 1 2.925-4.227 13.087 13.087 0 0 1 9.444-3.738c3.462 0 6.786 1.353 9.264 3.77a13.064 13.064 0 0 1 3.4 5.408v-8.648h5.942l9.878 14.11v-14.11h6.587v25.408h-5.787l-10.033-14.155v14.155h-6.583v-8.709a12.781 12.781 0 0 1-3.147 5.266 13.217 13.217 0 0 1-9.559 3.988Zm.074-20.162a6.942 6.942 0 0 0-4.893 1.961 6.611 6.611 0 0 0-2 4.763 7.162 7.162 0 0 0 2.068 5.064 6.75 6.75 0 0 0 4.749 2.044 6.6 6.6 0 0 0 4.773-1.992 7.256 7.256 0 0 0 1.98-5.116 6.709 6.709 0 0 0-6.677-6.723v-.001Zm-39.205 19.618h-6.57V13.284h6.57v9.648h6.766v-9.648h6.575v25.409h-6.575v-9.721h-6.766v9.723Zm-13.032 0h-6.568V19.35h-5.112v-6.074h16.786v6.074h-5.1v19.343l-.006.002Zm-77.483 0H13.038V13.287h9.188c4.214 0 7.21.5 10.05 3.035a11.708 11.708 0 0 1 3.738 7.2V13.287h14.624v5.589l-8.046.009v4.151l6.967-.006v5.464l-6.967.007v4.605h8.046v5.571H36.013V28.548a11.958 11.958 0 0 1-3.708 7c-2.867 2.645-5.44 3.146-9.179 3.146l-.003.001ZM19.615 18.75v14.364h2.641c2.553 0 4.382-.566 5.592-1.73 1.21-1.164 1.818-2.97 1.818-5.48 0-4.613-2.642-7.154-7.44-7.154h-2.611ZM1 1V0H0v1h1Zm200 0h1V0h-1v1Zm0 50v1h1v-1h-1ZM1 51H0v1h1v-1ZM1 2h200V0H1v2Zm199-1v50h2V1h-2Zm1 49H1v2h200v-2ZM2 51V1H0v50h2Z" fill="#fff"/></svg>
